X: 37133
T: Singing Blackbird, The
R: reel
M: 4/4
K: Bminor
|:dBAB FEDE|AGBA dfed|cded cAAG|FDDF GABA:|
f2de fgfa|fefd B2de|f2ed deed|cecA B3d|
B2Bc dBAd|f2de fafe|fAfe B2de|cedc (3BBB B2||

